static/images/pieces/disguised/shogi-ally.svg

<svg height="60" width="55" xmlns="http://www.w3.org/2000/svg" xmlns:xlink="http://www.w3.org/1999/xlink"><filter id="a" height="1.241372" width="1.285978" x="-.118336" y="-.099878"><feGaussianBlur in="SourceAlpha" result="blur" stdDeviation="2"/><feOffset dx="2" dy="2" result="offsetBlur"/><feBlend in="SourceGraphic" in2="offsetBlur" mode="normal"/></filter><linearGradient id="b" gradientUnits="userSpaceOnUse" spreadMethod="repeat" x1="-30.848997" x2="-15.094454" y1="30.266588" y2="30.266588"><stop offset="0" stop-color="#dfb459"/><stop offset=".03342274" stop-color="#dead54"/><stop offset=".09289452" stop-color="#e1b85f"/><stop offset=".16495684" stop-color="#dba84d"/><stop offset=".3052367" stop-color="#dfb765"/><stop offset=".53886235" stop-color="#d8a94e"/><stop offset=".58579648" stop-color="#d5ab53"/><stop offset=".83974683" stop-color="#e0bf6e"/><stop offset=".92426348" stop-color="#daae52"/><stop offset=".96230692" stop-color="#d9af57"/><stop offset="1" stop-color="#e1b663"/></linearGradient><g transform="matrix(1.3333333 0 0 -1.3333333 -70.30806 375.85074)"><g fill="#75581b" filter="url(#a)" transform="matrix(.75000002 0 0 -.75000002 80.923325 281.2116)"><path d="m26.628906 7.1386719-12.83789 3.6093751-6.8652348 43.279297-.8144531.001953.6289063 1.167969h39.9335936c-2.302858-14.885125-4.075006-30.549658-6.789062-44.16211l-.628907-1.1699216.203125 1.0449216z" fill="#84631f" transform="translate(-37.589704 -.901949)"/></g><path d="m-10.959998 6.2374999-12.838 3.608-7.051 44.4501771 39.9340001-.000177c-2.3028583-14.885125-4.0759435-30.550548-6.79-44.163z" fill="url(#b)" transform="matrix(.75000002 0 0 -.75000002 80.451421 282.088)"/><path d="m57.314672 241.36624.47155-.87613h29.950196l-.471245.87626z" fill="#654b13"/></g></svg>

<?xml version="1.0" encoding="UTF-8" standalone="no"?>
<svg
   width="55"
   height="60"
   version="1.1"
   id="svg1717"
   sodipodi:docname="shogi-ally.svg"
   inkscape:version="1.1.2 (0a00cf5339, 2022-02-04)"
   inkscape:export-filename="D:\Pictures\Chess Variants\Shogi\pieces\Wood\V2\0HI.png"
   inkscape:export-xdpi="365.56299"
   inkscape:export-ydpi="365.56299"
   xmlns:inkscape="http://www.inkscape.org/namespaces/inkscape"
   xmlns:sodipodi="http://sodipodi.sourceforge.net/DTD/sodipodi-0.dtd"
   xmlns:xlink="http://www.w3.org/1999/xlink"
   xmlns="http://www.w3.org/2000/svg"
   xmlns:svg="http://www.w3.org/2000/svg"
   xmlns:rdf="http://www.w3.org/1999/02/22-rdf-syntax-ns#"
   xmlns:cc="http://creativecommons.org/ns#"
   xmlns:dc="http://purl.org/dc/elements/1.1/">
  <metadata
     id="metadata1723">
    <rdf:RDF>
      <cc:Work
         rdf:about="">
        <dc:format>image/svg+xml</dc:format>
        <dc:type
           rdf:resource="http://purl.org/dc/dcmitype/StillImage" />
      </cc:Work>
    </rdf:RDF>
  </metadata>
  <defs
     id="defs1721">
    <filter
       style="color-interpolation-filters:sRGB"
       inkscape:label="Drop Shadow"
       id="filter1552">
      <feFlood
         flood-opacity="0.498039"
         flood-color="rgb(0,0,0)"
         result="flood"
         id="feFlood1542" />
      <feComposite
         in="flood"
         in2="SourceGraphic"
         operator="in"
         result="composite1"
         id="feComposite1544" />
      <feGaussianBlur
         in="composite1"
         stdDeviation="2.5"
         result="blur"
         id="feGaussianBlur1546" />
      <feOffset
         dx="4.57967e-15"
         dy="4.41314e-15"
         result="offset"
         id="feOffset1548" />
      <feComposite
         in="SourceGraphic"
         in2="offset"
         operator="over"
         result="composite2"
         id="feComposite1550" />
    </filter>
    <filter
       style="color-interpolation-filters:sRGB"
       inkscape:label="Drop Shadow"
       id="filter1540">
      <feFlood
         flood-opacity="0.498039"
         flood-color="rgb(0,0,0)"
         result="flood"
         id="feFlood1530" />
      <feComposite
         in="flood"
         in2="SourceGraphic"
         operator="in"
         result="composite1"
         id="feComposite1532" />
      <feGaussianBlur
         in="composite1"
         stdDeviation="2.5"
         result="blur"
         id="feGaussianBlur1534" />
      <feOffset
         dx="4.57967e-15"
         dy="4.41314e-15"
         result="offset"
         id="feOffset1536" />
      <feComposite
         in="SourceGraphic"
         in2="offset"
         operator="over"
         result="composite2"
         id="feComposite1538" />
    </filter>
    <filter
       id="drop-shadow-9">
      <feGaussianBlur
         in="SourceAlpha"
         result="blur"
         stdDeviation="2"
         id="feGaussianBlur5056" />
      <feOffset
         result="offsetBlur"
         dx="2"
         dy="2"
         id="feOffset5058" />
      <feBlend
         in="SourceGraphic"
         in2="offsetBlur"
         mode="normal"
         id="feBlend5060" />
    </filter>
    <filter
       id="drop-shadow-2">
      <feGaussianBlur
         in="SourceAlpha"
         result="blur"
         stdDeviation="2"
         id="feGaussianBlur6807" />
      <feOffset
         result="offsetBlur"
         dx="2"
         dy="2"
         id="feOffset6809" />
      <feBlend
         in="SourceGraphic"
         in2="offsetBlur"
         mode="normal"
         id="feBlend6811" />
    </filter>
    <filter
       id="drop-shadow-2-8">
      <feGaussianBlur
         in="SourceAlpha"
         result="blur"
         stdDeviation="2"
         id="feGaussianBlur6807-2" />
      <feOffset
         result="offsetBlur"
         dx="2"
         dy="2"
         id="feOffset6809-8" />
      <feBlend
         in="SourceGraphic"
         in2="offsetBlur"
         mode="normal"
         id="feBlend6811-0" />
    </filter>
    <filter
       id="drop-shadow-6"
       x="-0.1183359"
       y="-0.099878078"
       width="1.2859784"
       height="1.241372">
      <feGaussianBlur
         in="SourceAlpha"
         result="blur"
         stdDeviation="2"
         id="feGaussianBlur5056-9" />
      <feOffset
         result="offsetBlur"
         dx="2"
         dy="2"
         id="feOffset5058-0" />
      <feBlend
         in="SourceGraphic"
         in2="offsetBlur"
         mode="normal"
         id="feBlend5060-9" />
    </filter>
    <filter
       id="drop-shadow-22">
      <feGaussianBlur
         in="SourceAlpha"
         result="blur"
         stdDeviation="2"
         id="feGaussianBlur5056-0-5" />
      <feOffset
         result="offsetBlur"
         dx="2"
         dy="2"
         id="feOffset5058-0-0" />
      <feBlend
         in="SourceGraphic"
         in2="offsetBlur"
         mode="normal"
         id="feBlend5060-0" />
    </filter>
    <linearGradient
       inkscape:collect="always"
       id="linearGradient12530">
      <stop
         style="stop-color:#dfb459;stop-opacity:1"
         offset="0"
         id="stop12526" />
      <stop
         id="stop16843"
         offset="0.03342274"
         style="stop-color:#dead54;stop-opacity:1" />
      <stop
         id="stop12556"
         offset="0.09289452"
         style="stop-color:#e1b85f;stop-opacity:1" />
      <stop
         id="stop12532"
         offset="0.16495684"
         style="stop-color:#dba84d;stop-opacity:1" />
      <stop
         style="stop-color:#dfb765;stop-opacity:1"
         offset="0.3052367"
         id="stop12564" />
      <stop
         style="stop-color:#d8a94e;stop-opacity:1"
         offset="0.53886235"
         id="stop12558" />
      <stop
         id="stop12562"
         offset="0.58579648"
         style="stop-color:#d5ab53;stop-opacity:1" />
      <stop
         style="stop-color:#e0bf6e;stop-opacity:1"
         offset="0.83974683"
         id="stop12534" />
      <stop
         id="stop16845"
         offset="0.92426348"
         style="stop-color:#daae52;stop-opacity:1" />
      <stop
         id="stop12560"
         offset="0.96230692"
         style="stop-color:#d9af57;stop-opacity:1" />
      <stop
         style="stop-color:#e1b663;stop-opacity:1"
         offset="1"
         id="stop12528" />
    </linearGradient>
    <linearGradient
       inkscape:collect="always"
       xlink:href="#linearGradient12530"
       id="linearGradient54948"
       x1="-30.848997"
       y1="30.266588"
       x2="-15.094454"
       y2="30.266588"
       gradientUnits="userSpaceOnUse"
       spreadMethod="repeat" />
    <filter
       id="drop-shadow-62">
      <feGaussianBlur
         in="SourceAlpha"
         result="blur"
         stdDeviation="2"
         id="feGaussianBlur5056-7" />
      <feOffset
         result="offsetBlur"
         dx="2"
         dy="2"
         id="feOffset5058-9" />
      <feBlend
         in="SourceGraphic"
         in2="offsetBlur"
         mode="normal"
         id="feBlend5060-1" />
    </filter>
    <filter
       id="drop-shadow-27">
      <feGaussianBlur
         in="SourceAlpha"
         result="blur"
         stdDeviation="2"
         id="feGaussianBlur5056-5" />
      <feOffset
         result="offsetBlur"
         dx="2"
         dy="2"
         id="feOffset5058-6" />
      <feBlend
         in="SourceGraphic"
         in2="offsetBlur"
         mode="normal"
         id="feBlend5060-96" />
    </filter>
    <filter
       id="drop-shadow-1">
      <feGaussianBlur
         in="SourceAlpha"
         result="blur"
         stdDeviation="2"
         id="feGaussianBlur5056-0" />
      <feOffset
         result="offsetBlur"
         dx="2"
         dy="2"
         id="feOffset5058-7" />
      <feBlend
         in="SourceGraphic"
         in2="offsetBlur"
         mode="normal"
         id="feBlend5060-4" />
    </filter>
  </defs>
  <sodipodi:namedview
     pagecolor="#ffffff"
     bordercolor="#666666"
     borderopacity="1"
     objecttolerance="10"
     gridtolerance="10"
     guidetolerance="10"
     inkscape:pageopacity="0"
     inkscape:pageshadow="2"
     inkscape:window-width="2486"
     inkscape:window-height="1376"
     id="namedview1719"
     showgrid="false"
     inkscape:zoom="7.8666669"
     inkscape:cx="-11.949152"
     inkscape:cy="26.377118"
     inkscape:window-x="0"
     inkscape:window-y="0"
     inkscape:window-maximized="1"
     inkscape:current-layer="g9438"
     inkscape:snap-nodes="true"
     inkscape:pagecheckerboard="0" />
  <!--
Created by Hari Seldon and modified by orangain, licensed under Creative Commons Attribution-Share Alike 3.0 Unported.
See: https://creativecommons.org/licenses/by-sa/3.0/deed.en

Original file is available at: https://commons.wikimedia.org/wiki/File:Shogi_gyokusho(svg).svg
-->
  <filter
     id="drop-shadow">
    <feGaussianBlur
       in="SourceAlpha"
       result="blur"
       stdDeviation="2"
       id="feGaussianBlur1692" />
    <feOffset
       result="offsetBlur"
       dx="2"
       dy="2"
       id="feOffset1694" />
    <feBlend
       in="SourceGraphic"
       in2="offsetBlur"
       mode="normal"
       id="feBlend1696" />
  </filter>
  <g
     transform="matrix(1.3333333,0,0,-1.3333333,-70.30806,375.85074)"
     style="display:inline"
     id="g9438">
    <g
       transform="matrix(0.75000002,0,0,-0.75000002,80.923325,281.2116)"
       id="g55026"
       style="fill:#75581b;fill-opacity:1;filter:url(#drop-shadow-6)">
      <path
         style="fill:#84631f;fill-opacity:1"
         d="M 26.628906 7.1386719 L 13.791016 10.748047 L 6.9257812 54.027344 L 6.1113281 54.029297 L 6.7402344 55.197266 L 46.673828 55.197266 C 44.37097 40.312141 42.598822 24.647608 39.884766 11.035156 L 39.255859 9.8652344 L 39.458984 10.910156 L 26.628906 7.1386719 z "
         transform="translate(-37.589704,-0.90194937)"
         id="path55024" />
    </g>
    <g
       style="fill:#ffd5e5;fill-opacity:1"
       id="g5765"
       transform="matrix(0.75000002,0,0,-0.75000002,80.451421,282.088)">
      <path
         style="fill:url(#linearGradient54948);fill-opacity:1"
         inkscape:connector-curvature="0"
         id="path5763"
         d="m -10.959998,6.2374999 -12.838,3.608 -7.051,44.4501771 39.9340001,-1.77e-4 c -2.3028583,-14.885125 -4.0759435,-30.550548 -6.79,-44.163 z"
         sodipodi:nodetypes="cccccc" />
    </g>
    <path
       style="fill:#654b13;stroke:none;stroke-width:0.75px;stroke-linecap:butt;stroke-linejoin:miter;stroke-opacity:1;fill-opacity:1"
       d="m 57.314672,241.36624 0.47155,-0.87613 h 29.950196 l -0.471245,0.87626 z"
       id="path55035"
       inkscape:connector-curvature="0" />
  </g>
</svg>
